public/img_growthicon_1.svg

<svg width="65" height="88" viewBox="0 0 65 88" fill="none" xmlns="http://www.w3.org/2000/svg">
<g clip-path="url(#clip0_9_47973)">
<mask id="mask0_9_47973" style="mask-type:luminance" maskUnits="userSpaceOnUse" x="0" y="0" width="65" height="88">
<path d="M65 0H0V88H65V0Z" fill="white"/>
</mask>
<g mask="url(#mask0_9_47973)">
<path fill-rule="evenodd" clip-rule="evenodd" d="M8.83641 87.2137L1.26457 82.8641C0.768373 82.5244 0.680106 82.0872 0.65625 81.5171V20.1827C0.706347 19.5556 1.00455 19.1707 1.53414 18.869C2.39534 18.3749 3.26369 17.8737 4.12966 17.3724C4.33482 17.2845 4.41593 17.2465 4.63302 17.3225L12.1977 21.6769C11.983 21.5938 11.8995 21.6342 11.6944 21.7221C10.7711 22.2566 9.85029 22.7887 8.92707 23.3161C8.49528 23.6178 8.26387 24.0097 8.22093 24.5371V74.7563L56.0805 47.2426C56.2857 47.15 56.3668 47.1096 56.5839 47.1927L64.151 51.5424C63.941 51.4664 63.8528 51.4972 63.6476 51.5923L12.4029 81.0515L8.22332 78.6474V85.862C8.24479 86.4393 8.34021 86.8692 8.83641 87.2089V87.2137Z" fill="#035BE8"/>
<path fill-rule="evenodd" clip-rule="evenodd" d="M4.42526 17.9544L1.85121 19.4273C1.47667 19.6482 1.32638 19.8549 1.29776 20.235V81.5147C1.31923 82.0255 1.40272 82.1751 1.62935 82.3343L7.56707 85.7432V78.6498C7.56707 78.4194 7.69351 78.2056 7.8939 78.0892C8.0919 77.9728 8.34238 77.9728 8.54516 78.0892L12.4002 80.3103L62.6406 51.4212L56.3832 47.8246L8.54754 75.3169C8.34238 75.4333 8.09428 75.4333 7.89628 75.3169C7.69828 75.2005 7.56946 74.9867 7.56946 74.7563V24.5371C7.6291 23.7674 7.96069 23.1949 8.55709 22.7816L10.6898 21.5558L4.42764 17.9544H4.42526ZM8.83143 87.8622C8.72169 87.8622 8.6048 87.8337 8.5046 87.7743L0.937534 83.4247C0.152677 82.8902 0.0310126 82.2037 0 81.5433V20.1827C0.0715675 19.318 0.446104 18.7407 1.19756 18.306L3.79785 16.8165C4.13899 16.6574 4.41571 16.5576 4.85228 16.7168L12.5171 21.1163C12.8034 21.2802 12.9203 21.6437 12.7771 21.9525C12.634 22.2542 12.2809 22.3967 11.966 22.2827L9.24414 23.8767C9.01751 24.0406 8.89107 24.2568 8.86244 24.5846L8.86721 73.6398L55.7534 46.682C56.0397 46.5442 56.3331 46.4136 56.8031 46.5894L64.468 50.9889C64.7614 51.1528 64.8711 51.5163 64.728 51.8203C64.5849 52.1291 64.2246 52.2717 63.9169 52.1505L12.7223 81.6169C12.5243 81.7333 12.2738 81.7333 12.0758 81.6169L8.86721 79.7758V85.8691C8.88868 86.3846 8.96741 86.5295 9.19881 86.6887C9.48508 86.8859 9.5638 87.2731 9.37534 87.5629C9.25368 87.7601 9.04375 87.8646 8.82904 87.8646L8.83143 87.8622Z" fill="#035BE8"/>
<path fill-rule="evenodd" clip-rule="evenodd" d="M10.3109 87.0711C9.73121 87.4013 9.21115 87.4345 8.83185 87.2136C8.45731 86.9998 8.21875 86.527 8.21875 85.8666V24.537C8.21875 24.0904 8.53365 23.5416 8.92011 23.316C9.84811 22.7886 10.769 22.2541 11.6922 21.722C12.0834 21.5034 12.3983 21.6839 12.3983 22.1353V81.0561L63.643 51.5969C64.0343 51.3712 64.3492 51.5589 64.3492 52.0031V55.1864C64.3492 55.6306 64.0343 56.1817 63.643 56.4074L10.3109 87.0711Z" fill="#EFF3FA"/>
<path fill-rule="evenodd" clip-rule="evenodd" d="M11.7532 22.4418L9.24586 23.8766C9.0574 23.9859 8.86894 24.3161 8.86894 24.537V85.8667C8.86894 86.2562 8.97391 86.5484 9.15521 86.6577C9.33174 86.7622 9.64664 86.7028 9.98301 86.5104L63.3199 55.8468C63.5084 55.7375 63.7016 55.4073 63.7016 55.1864V52.3096L12.7217 81.6168C12.5237 81.7332 12.2732 81.7332 12.0752 81.6168C11.87 81.5004 11.7484 81.2866 11.7484 81.0562V22.4418H11.7532ZM9.3723 87.9999C9.06217 87.9999 8.77113 87.9286 8.50633 87.7742C7.90994 87.4345 7.56641 86.7337 7.56641 85.8667V24.537C7.56641 23.86 8.00775 23.095 8.59937 22.7553L11.3667 21.1661C11.7651 20.9404 12.1849 20.919 12.5213 21.1162C12.8577 21.3086 13.0509 21.684 13.0509 22.1329V79.9373L63.3223 51.0315C63.7136 50.8059 64.1334 50.7892 64.4722 50.9864C64.8085 51.1788 65.0018 51.547 65.0018 51.9984V55.1816C65.0018 55.8587 64.5604 56.6236 63.9688 56.9633L10.6319 87.6269C10.2001 87.8787 9.77546 87.9999 9.3723 87.9999Z" fill="#035BE8"/>
<path fill-rule="evenodd" clip-rule="evenodd" d="M54.2535 53.0957L12.3984 77.16V32.4664L54.2535 8.40674V53.0957Z" fill="white"/>
<path fill-rule="evenodd" clip-rule="evenodd" d="M13.0516 32.8421V76.0392L53.6089 52.7231V9.52372L13.0516 32.8421ZM12.4004 77.8113C12.2906 77.8113 12.1785 77.7781 12.0807 77.7234C11.8755 77.607 11.7539 77.3932 11.7539 77.1628V32.4692C11.7539 32.2387 11.8755 32.0297 12.0807 31.9085L53.9358 7.84658C54.1338 7.73018 54.3842 7.73018 54.5822 7.84658C54.7874 7.96298 54.9091 8.17203 54.9091 8.40721V53.0961C54.9091 53.3265 54.7874 53.5403 54.5822 53.6567L12.7272 77.7211C12.627 77.7757 12.5173 77.809 12.4004 77.809V77.8113Z" fill="#035BE8"/>
<path fill-rule="evenodd" clip-rule="evenodd" d="M40.8124 25.366C40.6407 25.2401 40.5977 25.1783 40.4761 25.0096L39.6745 23.5914C39.3429 22.8764 39.486 22.178 39.7413 21.4629C40.1946 20.3844 40.7743 19.8618 41.5472 18.9781C42.697 17.6739 43.8397 16.3721 44.9824 15.0727C47.43 12.279 49.8872 9.49018 52.3324 6.70128C53.6421 5.21181 54.9446 3.72709 56.2543 2.23524L53.487 0.645996C51.6859 2.69135 49.892 4.7367 48.0956 6.78443C45.9701 9.19799 43.8493 11.6186 41.7237 14.0369C40.581 15.3411 39.4383 16.6382 38.2933 17.9424C37.6038 18.7287 37.2388 19.1183 36.8905 20.1089C36.6973 20.7693 36.609 21.3631 36.912 21.9998L37.7064 23.4133C37.8281 23.589 37.871 23.6437 38.0428 23.7767L40.8101 25.366H40.8124ZM51.798 26.6583L49.0308 25.069C48.5226 24.7056 48.4845 24.4632 48.4129 23.8694L48.2912 20.0471L51.0585 21.6411L51.1802 25.4515C51.2565 26.0525 51.2971 26.2924 51.798 26.6559V26.6583ZM17.8178 67.0285L15.0505 65.4392C14.0844 64.8286 14.4756 63.4104 14.8525 62.5695L25.256 41.0992C25.7976 40.0255 26.4822 39.1465 27.5247 38.5194L38.5533 32.141L43.4461 19.3724L46.2134 20.9617L41.3206 33.7303L30.292 40.1158C29.2543 40.7382 28.5648 41.6171 28.0233 42.6885L17.6174 64.1516C17.2357 64.9974 16.8445 66.4109 17.8154 67.0285H17.8178Z" fill="#035BE8"/>
<path fill-rule="evenodd" clip-rule="evenodd" d="M48.9759 21.1922L49.0594 23.8433C49.1262 24.3279 49.1262 24.3374 49.4125 24.5417L50.5218 25.1808L50.4168 22.0237L48.9759 21.1922ZM51.7981 27.3021C51.6812 27.3021 51.5786 27.2736 51.4713 27.219L48.704 25.625C47.943 25.0857 47.8547 24.6415 47.7641 23.9526L47.6376 20.071C47.6329 19.8405 47.7545 19.6148 47.9573 19.4937C48.1553 19.3773 48.4105 19.3773 48.6086 19.4937L51.3758 21.0829C51.5738 21.1922 51.6954 21.3965 51.7074 21.6222L51.8243 25.4397C51.8911 25.9077 51.8911 25.9291 52.1726 26.131C52.4541 26.3353 52.5257 26.7201 52.3372 27.0052C52.2156 27.1976 52.0056 27.3021 51.7957 27.3021H51.7981ZM53.6254 1.47273L55.2429 2.4087L44.491 14.6452L40.686 18.9734C40.0849 19.6386 39.5648 20.2159 39.1282 21.2445C38.8921 21.9215 38.6917 22.7126 38.9803 23.5773L38.446 23.2684C38.376 23.213 38.3211 23.156 38.2814 23.0974L37.5013 21.7291C37.2914 21.2944 37.3534 20.8715 37.5013 20.3275C37.7995 19.4866 38.0858 19.1611 38.7823 18.3748L53.6254 1.47273ZM43.7849 20.3133L39.1616 32.3739C39.1068 32.5165 39.0066 32.6258 38.8802 32.7041L27.8516 39.0825C27.0238 39.5766 26.3821 40.3154 25.8358 41.3915L15.437 62.8499C15.3201 63.1041 14.7476 64.4843 15.3988 64.8905L16.563 65.5604C16.6012 65.0592 16.7515 64.4985 17.021 63.8952L27.4365 42.4083C28.1045 41.0946 28.906 40.1871 29.9605 39.5552L40.7958 33.2909L45.4119 21.2469L43.7825 20.3109L43.7849 20.3133ZM17.8178 67.6747C17.7081 67.6747 17.596 67.6462 17.4934 67.5915L14.7261 65.9975C13.6812 65.3443 13.5166 63.9688 14.2562 62.3083L24.6716 40.8214C25.3348 39.5077 26.134 38.605 27.1956 37.9684L38.0309 31.704L40.29 25.815L37.7208 24.3422C37.4178 24.1118 37.3224 24.0001 37.1697 23.7816L36.3467 22.3254C35.9268 21.4345 36.0604 20.6601 36.2703 19.9379C36.6616 18.8262 37.0647 18.3653 37.7398 17.6004L53.0028 0.218438C53.208 -0.011991 53.5443 -0.0666287 53.8139 0.0877823L56.5812 1.68178C56.7458 1.77443 56.8627 1.94072 56.8961 2.13314C56.9295 2.32556 56.8745 2.51798 56.741 2.66051L41.6546 19.8286C41.0844 20.4605 40.6765 20.9166 40.3449 21.7101C40.1302 22.3206 40.0348 22.8218 40.2686 23.316L40.853 24.3446L42.8474 19.1421C42.9142 18.9663 43.0525 18.8285 43.2338 18.762C43.4151 18.7026 43.6155 18.7169 43.7754 18.8119L46.5426 20.4012C46.8194 20.5651 46.941 20.8953 46.8241 21.1922L41.9313 33.9608C41.8764 34.0986 41.7834 34.2197 41.6498 34.291L30.6213 40.6694C29.7982 41.1635 29.1517 41.9023 28.6054 42.9784L18.2067 64.4368C18.0421 64.8002 17.5316 66.0759 18.1685 66.4821C18.4667 66.6698 18.5597 67.0594 18.3784 67.3635C18.252 67.5606 18.0421 67.6723 17.8202 67.6723L17.8178 67.6747Z" fill="#035BE8"/>
<path fill-rule="evenodd" clip-rule="evenodd" d="M17.6183 64.1542L28.0242 42.6911C28.301 42.1257 28.6469 41.6078 29.0286 41.1683C29.4198 40.7241 29.8516 40.3654 30.2929 40.1183L41.3215 33.7329L46.2143 20.9643L43.0773 24.5395C42.1159 25.6346 40.9517 25.8436 40.477 25.0122L39.6754 23.594C39.2126 22.7626 39.6086 21.1899 40.57 20.0948C45.7992 14.144 51.0308 8.18855 56.2552 2.23779C56.4651 8.81095 56.6679 15.3817 56.8731 21.9477C56.9113 23.1569 56.0715 24.682 55.0004 25.34L53.1897 26.4565C52.1186 27.1169 51.2121 26.6656 51.1787 25.4612L51.057 21.6437L45.3292 36.498C45.0811 37.0705 44.7496 37.6311 44.3512 38.1205C43.9265 38.6384 43.4399 39.066 42.9484 39.3463L31.6766 45.8624L22.1271 65.5724C21.4758 66.9193 20.2496 67.8054 19.398 67.5417L17.9618 67.0904C17.1173 66.8267 16.9623 65.5059 17.6135 64.1542H17.6183Z" fill="#EFF3FA"/>
<path fill-rule="evenodd" clip-rule="evenodd" d="M18.2016 64.4413C17.7936 65.2775 17.8103 65.9379 17.9463 66.2515C18.0227 66.4321 18.1229 66.4653 18.1563 66.4772L19.5971 66.9285C20.0266 67.0616 20.9665 66.4772 21.5414 65.2942L31.0909 45.5889C31.1505 45.4678 31.2388 45.368 31.3509 45.3086L42.6228 38.7854C43.0474 38.5431 43.4745 38.1701 43.849 37.7069C44.2021 37.2721 44.505 36.7661 44.7317 36.2388L50.4475 21.4129C50.5644 21.1207 50.8507 20.9568 51.1656 21.0067C51.4685 21.0566 51.6952 21.3155 51.7071 21.622L51.824 25.4395C51.8359 25.7578 51.929 25.9954 52.0721 26.0761C52.2367 26.164 52.5349 26.0975 52.845 25.9051L54.6557 24.7886C55.524 24.2541 56.2516 22.9404 56.223 21.9664L55.6552 3.89563L41.0531 20.515C40.2301 21.4557 39.9438 22.748 40.242 23.2754L41.0435 24.6888C41.1032 24.8052 41.1867 24.8527 41.2964 24.8646C41.5779 24.8931 42.0908 24.6722 42.5894 24.1044L45.7264 20.5364C45.9316 20.3012 46.2847 20.2442 46.5495 20.4057C46.819 20.5696 46.9359 20.8998 46.819 21.192L41.9262 33.9606C41.8713 34.0984 41.7783 34.2195 41.6447 34.2908L30.6162 40.6692C30.2416 40.883 29.8599 41.2037 29.5164 41.5885C29.1633 41.9947 28.8437 42.4746 28.6003 42.9687L18.2016 64.439V64.4413ZM19.726 68.2351C19.5494 68.2351 19.3729 68.2137 19.2059 68.1591L17.7698 67.7077C17.3165 67.5652 16.9587 67.2302 16.7535 66.767C16.4219 66.0021 16.5269 64.9188 17.0303 63.8807L27.4338 42.4105C27.732 41.7999 28.1018 41.2393 28.5383 40.7428C28.9844 40.2368 29.4663 39.8354 29.9697 39.5503L40.7954 33.2931L44.319 24.1092L43.5675 24.962C42.8327 25.7982 41.9596 26.2329 41.1652 26.1545C40.6308 26.0999 40.1824 25.803 39.9104 25.3231L39.116 23.9096C38.5029 22.8383 38.9275 20.9735 40.0822 19.6645L55.7674 1.80752C55.9391 1.61035 56.2206 1.53908 56.4687 1.62698C56.7216 1.71962 56.8934 1.95243 56.9053 2.21611L57.5232 21.9308C57.5685 23.3656 56.6119 25.1045 55.3427 25.8909L53.5321 27.0074C52.8021 27.454 52.0459 27.53 51.4614 27.2164C50.8936 26.9076 50.5549 26.2828 50.5286 25.4846L50.5119 24.8694L45.9388 36.7305C45.6573 37.3838 45.2875 37.9943 44.8557 38.524C44.381 39.1084 43.8347 39.5859 43.2765 39.909L32.1763 46.3277L22.7151 65.85C22.0137 67.3015 20.8043 68.2375 19.7284 68.2375L19.726 68.2351Z" fill="#035BE8"/>
</g>
</g>
<defs>
<clipPath id="clip0_9_47973">
<rect width="65" height="88" fill="white"/>
</clipPath>
</defs>
</svg>

<svg xmlns="http://www.w3.org/2000/svg" width="65" height="88" fill="none" viewBox="0 0 65 88"><g clip-path="url(#a)"><mask id="b" width="65" height="88" x="0" y="0" maskUnits="userSpaceOnUse" style="mask-type:luminance"><path fill="#fff" d="M65 0H0v88h65z"/></mask><g fill-rule="evenodd" clip-rule="evenodd" mask="url(#b)"><path fill="#035be8" d="m8.836 87.214-7.571-4.35c-.497-.34-.585-.777-.609-1.347V20.183c.05-.627.349-1.012.878-1.314.861-.494 1.73-.995 2.596-1.497.205-.087.286-.125.503-.05l7.565 4.355c-.215-.083-.299-.043-.504.045q-1.383.803-2.767 1.594c-.432.302-.663.694-.706 1.221v50.22l47.86-27.514c.205-.093.286-.133.503-.05l7.567 4.35c-.21-.077-.298-.046-.503.05L12.403 81.051l-4.18-2.405v7.215c.022.577.117 1.007.613 1.347z"/><path fill="#035be8" d="m4.425 17.954-2.574 1.473c-.374.221-.525.428-.553.808v61.28c.021.51.105.66.331.82l5.938 3.408V78.65a.652.652 0 0 1 .978-.56l3.855 2.22 50.24-28.889-6.257-3.596L8.548 75.317a.65.65 0 0 1-.979-.56v-50.22c.06-.77.392-1.342.988-1.755l2.133-1.226-6.262-3.602zm4.406 69.908a.65.65 0 0 1-.326-.088l-7.567-4.35C.153 82.89.03 82.205 0 81.545V20.182c.072-.865.446-1.442 1.198-1.877l2.6-1.49c.341-.159.618-.258 1.054-.1l7.665 4.4a.65.65 0 0 1 .26.837.653.653 0 0 1-.811.33l-2.722 1.594c-.226.164-.353.38-.382.708l.005 49.055 46.886-26.958c.287-.138.58-.268 1.05-.093l7.665 4.4a.64.64 0 0 1 .26.831.64.64 0 0 1-.811.33L12.722 81.618a.64.64 0 0 1-.646 0l-3.209-1.841v6.093c.022.516.1.66.332.82a.64.64 0 0 1 .176.874.64.64 0 0 1-.546.302z"/><path fill="#eff3fa" d="M10.31 87.071c-.579.33-1.099.364-1.478.143-.375-.214-.613-.687-.613-1.347v-61.33c0-.447.315-.995.701-1.221.928-.527 1.849-1.062 2.772-1.594.391-.219.706-.038.706.413v58.921l51.245-29.46c.391-.225.706-.037.706.407v3.183c0 .445-.315.996-.706 1.221z"/><path fill="#035be8" d="m11.753 22.442-2.507 1.435c-.189.109-.377.44-.377.66v61.33c0 .39.105.681.286.79.177.105.492.046.828-.147L63.32 55.847c.188-.11.382-.44.382-.66V52.31l-50.98 29.307a.64.64 0 0 1-.647 0 .64.64 0 0 1-.327-.56V22.441zM9.373 88a1.7 1.7 0 0 1-.867-.226c-.596-.34-.94-1.04-.94-1.907v-61.33c0-.677.442-1.442 1.033-1.782l2.768-1.589c.398-.226.818-.247 1.154-.05.337.193.53.568.53 1.017v57.804l50.271-28.905c.392-.226.811-.243 1.15-.046.337.193.53.561.53 1.012v3.184c0 .677-.442 1.442-1.033 1.781L10.632 87.627c-.432.252-.857.373-1.26.373"/><path fill="#fff" d="M54.254 53.096 12.398 77.16V32.466l41.856-24.06z"/><path fill="#035be8" d="M13.052 32.842V76.04l40.557-23.316v-43.2zm-.652 44.97a.67.67 0 0 1-.32-.089.64.64 0 0 1-.326-.56V32.469c0-.23.122-.44.327-.56L53.936 7.846a.64.64 0 0 1 .646 0 .64.64 0 0 1 .327.56v44.69c0 .23-.122.443-.327.56L12.727 77.72a.7.7 0 0 1-.327.088z"/><path fill="#035be8" d="M40.812 25.366c-.171-.126-.214-.188-.336-.356l-.801-1.419c-.332-.715-.189-1.413.066-2.128.454-1.079 1.033-1.601 1.806-2.485q1.723-1.956 3.435-3.905c2.448-2.794 4.905-5.583 7.35-8.372 1.31-1.49 2.613-2.974 3.922-4.466L53.487.646c-1.801 2.045-3.595 4.09-5.391 6.138-2.126 2.414-4.247 4.835-6.372 7.253-1.143 1.304-2.286 2.601-3.43 3.905-.69.787-1.055 1.176-1.403 2.167-.194.66-.282 1.254.021 1.89l.794 1.414c.122.176.165.23.337.364l2.767 1.589zm10.986 1.292-2.767-1.589c-.508-.363-.547-.606-.618-1.2l-.122-3.822 2.768 1.594.121 3.81c.077.601.117.841.618 1.205zm-33.98 40.37L15.05 65.44c-.966-.61-.574-2.029-.198-2.87L25.257 41.1c.542-1.073 1.226-1.952 2.269-2.58l11.028-6.378 4.893-12.769 2.767 1.59-4.892 12.768-11.029 6.386c-1.038.622-1.727 1.501-2.269 2.572L17.617 64.153c-.381.845-.773 2.259.198 2.876z"/><path fill="#035be8" d="m48.976 21.192.083 2.651c.067.485.067.494.354.699l1.109.639-.105-3.157zm2.822 6.11a.7.7 0 0 1-.327-.083l-2.767-1.594c-.761-.54-.85-.983-.94-1.672l-.126-3.882a.66.66 0 0 1 .32-.577.65.65 0 0 1 .65 0l2.768 1.589a.65.65 0 0 1 .331.54l.117 3.817c.067.468.067.49.349.691.281.204.353.59.164.874a.64.64 0 0 1-.541.297zm1.827-25.83 1.618.937L44.49 14.645l-3.805 4.328c-.601.666-1.121 1.243-1.558 2.271-.236.678-.436 1.469-.148 2.333l-.534-.309a.8.8 0 0 1-.165-.17l-.78-1.369c-.21-.435-.148-.857 0-1.401.299-.841.585-1.167 1.281-1.953zm-9.84 18.841-4.623 12.06a.67.67 0 0 1-.282.331l-11.028 6.379c-.828.494-1.47 1.232-2.016 2.309L15.437 62.85c-.117.254-.69 1.634-.038 2.04l1.164.67c.038-.5.189-1.061.458-1.665l10.415-21.487c.669-1.313 1.47-2.22 2.524-2.853l10.836-6.264 4.616-12.044-1.63-.936zM17.818 67.675a.7.7 0 0 1-.325-.084l-2.767-1.593c-1.045-.654-1.21-2.03-.47-3.69l10.416-21.487c.663-1.313 1.462-2.216 2.524-2.853l10.835-6.264 2.259-5.889-2.57-1.473c-.302-.23-.398-.342-.55-.56l-.823-1.457c-.42-.89-.287-1.665-.077-2.387.392-1.112.795-1.573 1.47-2.338L53.003.218a.65.65 0 0 1 .81-.13l2.768 1.594a.64.64 0 0 1 .315.451.61.61 0 0 1-.155.528L41.655 19.829c-.57.631-.979 1.088-1.31 1.881-.215.61-.31 1.112-.076 1.606l.584 1.029 1.994-5.203a.65.65 0 0 1 .387-.38.66.66 0 0 1 .541.05l2.768 1.59a.64.64 0 0 1 .281.79l-4.893 12.769a.63.63 0 0 1-.281.33L30.62 40.669c-.823.495-1.47 1.233-2.016 2.31L18.207 64.436c-.165.363-.675 1.639-.038 2.045a.647.647 0 0 1 .21.882.66.66 0 0 1-.559.308z"/><path fill="#eff3fa" d="m17.618 64.154 10.406-21.463a7 7 0 0 1 1.005-1.523 5 5 0 0 1 1.264-1.05l11.029-6.385 4.892-12.769-3.137 3.576c-.961 1.095-2.125 1.304-2.6.472l-.802-1.418c-.462-.831-.066-2.404.895-3.5C45.8 14.145 51.03 8.19 56.255 2.239c.21 6.573.413 13.144.618 19.71.038 1.209-.801 2.734-1.873 3.392l-1.81 1.116c-1.071.66-1.978.21-2.011-.995l-.122-3.817-5.728 14.854a7 7 0 0 1-.978 1.623c-.425.517-.911.945-1.403 1.225l-11.271 6.516-9.55 19.71c-.651 1.347-1.877 2.233-2.729 1.97l-1.436-.452c-.845-.263-1-1.584-.349-2.936z"/><path fill="#035be8" d="M18.202 64.441c-.408.837-.392 1.497-.256 1.81.077.181.177.214.21.226l1.441.451c.43.134 1.37-.45 1.944-1.634l9.55-19.705a.62.62 0 0 1 .26-.28l11.272-6.524c.424-.242.852-.615 1.226-1.078a6.3 6.3 0 0 0 .883-1.468l5.715-14.826a.65.65 0 0 1 .719-.406.65.65 0 0 1 .541.615l.117 3.817c.012.319.105.556.248.637.165.088.463.021.773-.17l1.81-1.117c.869-.535 1.597-1.849 1.568-2.823l-.568-18.07-14.602 16.619c-.823.94-1.11 2.233-.811 2.76l.802 1.414c.06.116.143.164.252.176.282.028.795-.193 1.293-.76l3.137-3.569a.65.65 0 0 1 .824-.13c.269.164.386.494.269.786l-4.893 12.769a.63.63 0 0 1-.281.33l-11.029 6.378a4.6 4.6 0 0 0-1.1.92 6.6 6.6 0 0 0-.916 1.38l-10.398 21.47zm1.524 3.794c-.177 0-.353-.021-.52-.076l-1.436-.451c-.453-.143-.811-.478-1.017-.941-.331-.765-.226-1.848.277-2.886l10.404-21.47a7.5 7.5 0 0 1 1.104-1.668 5.6 5.6 0 0 1 1.432-1.193l10.825-6.257 3.524-9.184-.751.853c-.735.836-1.608 1.27-2.403 1.192a1.6 1.6 0 0 1-1.255-.83l-.794-1.414c-.613-1.072-.188-2.936.966-4.245L55.767 1.808a.65.65 0 0 1 .702-.181.66.66 0 0 1 .436.59l.618 19.714c.045 1.435-.911 3.174-2.18 3.96l-1.81 1.116c-.73.447-1.487.523-2.072.21-.567-.31-.906-.934-.932-1.732l-.017-.616-4.573 11.862a7.6 7.6 0 0 1-1.083 1.793c-.475.584-1.021 1.062-1.58 1.385l-11.1 6.419-9.46 19.522c-.702 1.452-1.912 2.388-2.988 2.388z"/></g></g><defs><clipPath id="a"><path fill="#fff" d="M0 0h65v88H0z"/></clipPath></defs></svg>
